X:1
T:Take the Wings of the Morning
T:Robert Lowry
T:Take the Wings of the Morning
T:Public Domain
T:Public Domain
C:Robert Lowry
Z:Public Domain
%%score ( 1 2 ) ( 3 4 )
L:1/8
M:3/4
K:D
V:1 treble 
V:2 treble 
V:3 bass 
V:4 bass 
V:1
 DD | D2 (DE) ([DF][EG]) | [FA]2 [DF]2 [Fd]2 | [Gc]2 [GB]2 [Gc]2 | [Fd]4 [Fd]2 | %5
w: 1.~Take the|the morn- * ing; *|ly thy flight|To Je- sus,|thy Sav-|
w: 2.~Fly a-|thy Sav- * ior, *|to for- give;|One look of|his love,|
w: 3.~On the|the morn- * ing *|to His breast—|There on- ly|thy re-|
 [Fd]2 [EB]2 [Ee]2 | [Ec]2 [CA]2 [EA]2 | [E^G]2 [DF]2 [DG]2 | [CA]4 ([FA][EG]) | %9
w: ior, thy hope|and thy light;|The fount of|His mer- *|
w: and thy spir-|it shall live;|Thy faith will|se- cure *|
w: fuge, there on-|ly thy rest;|The mo- ments|are pre- *|
 [DF]2 [DF]2 [CE]2 | D2 D2 [CE]2 | [DF]2 [DF]2 [FA]2 | [GB]4 [Gc]2 | [Fd]3 [Ac] [GB]2 | %14
w: cy is o-|pen for thee,|and be cleaned|in its|wa- ters so|
w: thee His bless-|ing di- vine;|thou His mer-|its, and|peace will be|
w: cious, the noon-|tide is near;|to the Sav-|ior, oh,|lin- ger not|
 [FA]2 [FA]2 [EG]2 | [DF]2 [DF]2 [CE]2 | D4 ||"^Refrain" [FA]>[FA] | [Fd]4 [Ge]>[Ec] | %19
w: free. Take the|wings of the|morn-|and fly,|Ere the dark-|
w: thine. * *|||||
w: here. * *|||||
 [Fd]2 [FA]2 ([GB][FA]) | [GA-]6 | [FA]4 [FA]>[FA] | [GA]4 [FA]>[FA] | [EA]2 [E^G]2 ([Ec][DB]) | %24
w: ness shall co- *|ver|the sky; Fly|a- way from|the sha- dows *|
w: |||||
w: |||||
 [CA]6- | [CA]4 [FA]>[EG] | [DF]2 [DF]2 [CE]2 | D2 D2 [CE]2 | [DF]2 [DF]2 [FA]2 | [GB]4 [Gc]2 | %30
w: that|* o- ver|thee roll, And|find in thy|the home of|thy soul.|
w: ||||||
w: ||||||
 [Fd]3 [Ac] [GB]2 | [FA]2 [FA]2 [EG]2 | [DF]2 [DF]2 [CE]2 | D4 |] %34
w: ||||
w: ||||
w: ||||
V:2
 DD | D2 D2 x2 | x6 | x6 | x6 | x6 | x6 | x6 | x6 | x6 | D2 D2 x2 | x6 | x6 | x6 | x6 | x6 | D4 || %17
w: wings of|speed quick-|||||||||Go wash||||||ing|
w: way to|He waits|||||||||Go plead|||||||
w: wings of|fly home|||||||||Fly home|||||||
 x2 | x6 | x6 | x6 | x6 | x6 | x6 | x6 | x6 | x6 | D2 D2 x2 | x6 | x6 | x6 | x6 | x6 | D4 |] %34
w: ||||||||||Sav- ior|||||||
w: |||||||||||||||||
w: |||||||||||||||||
V:3
 [D,F,][D,F,] | [D,F,]2 (F,G,) [D,A,]2 | [D,D]2 [D,A,]2 [D,A,]2 | [A,,A,]2 [A,,A,]2 [A,,A,]2 | %4
w: ~ ~|~ ~ * ~|~ ~ ~|~ ~ ~|
 [D,A,]4 [D,A,]2 | [B,,B,]2 [E,^G,]2 [E,G,]2 | [A,,A,]2 [A,,A,]2 [C,A,]2 | %7
w: ~ ~|~ ~ ~|~ ~ ~|
 [E,A,]2 [E,A,]2 [E,A,]2 | [A,,A,]4 [A,,A,]2 | [D,A,]2 [D,A,]2 [A,,G,]2 | %10
w: ~ ~ ~|~ ~|~ ~ ~|
 [B,,F,]2 [B,,F,]2 [A,,A,]2 | [D,A,]2 [D,A,]2 [D,D]2 | [G,D]4 [E,A,]2 | [D,A,]3 [D,D] [D,D]2 | %14
w: ~ ~ ~|~ ~ ~|~ ~|~ ~ ~|
 [D,D]2 [D,D]2 [G,B,]2 | A,2 A,2 [A,,G,]2 | [D,F,]4 || [D,D]>[D,D] | [D,A,]4 [A,,A,]>[A,,A,] | %19
w: ~ ~ ~|~ ~ ~|~|~ ~|~ ~ ~|
 [D,A,]2 [D,D]2 [D,D]2 | [A,C]2 [A,B,]2 [A,C]2 | [D,D]4 [D,D]>[D,D] | [C,E]4 [D,D]>[D,D] | %23
w: home- ward now|fly ~ ~|~ ~ ~|~ ~ shall|
 [E,C]2 [E,B,]2 (A,^G,) | [A,,A,]2 [A,,A,]2 [A,,A,]2 | [A,,A,]4 [A,,A,]>[A,,A,] | %26
w: co- ver the *|||
 [D,A,]2 [D,A,]2 [A,,G,]2 | [B,,F,]2 [B,,F,]2 [A,,A,]2 | [D,A,]2 [D,A,]2 [D,D]2 | [G,D]4 [E,A,]2 | %30
w: ||||
 [D,A,]3 [D,D] [D,D]2 | [D,D]2 [D,D]2 [G,B,]2 | A,2 A,2 [A,,G,]2 | [D,F,]4 |] %34
w: ||||
V:4
 x2 | x2 D,2 x2 | x6 | x6 | x6 | x6 | x6 | x6 | x6 | x6 | x6 | x6 | x6 | x6 | x6 | A,2 A,2 x2 | %16
w: |~||||||||||||||~ ~|
 x4 || x2 | x6 | x6 | x6 | x6 | x6 | x4 E,2 | x6 | x6 | x6 | x6 | x6 | x6 | x6 | x6 | A,2 A,2 x2 | %33
w: |||||||sky||||||||||
 x4 |] %34
w: |

